packages/katcn/src/icons/svg/speakers.svg

<svg width="24" height="25" viewBox="0 0 24 25" fill="none" xmlns="http://www.w3.org/2000/svg">
<path fill-rule="evenodd" clip-rule="evenodd" d="M6.7 3.20801C5.77123 3.20801 5 3.96564 5 4.96311V19.4529C5 20.4504 5.77123 21.208 6.7 21.208H17.3C18.2288 21.208 19 20.4504 19 19.4529V4.96311C19 3.94076 18.2047 3.20801 17.4 3.20801H6.7ZM3 4.96311C3 2.89935 4.62877 1.20801 6.7 1.20801H17.4C19.3953 1.20801 21 2.92423 21 4.96311V19.4529C21 21.5167 19.3712 23.208 17.3 23.208H6.7C4.62877 23.208 3 21.5167 3 19.4529V4.96311Z" fill="black"/>
<path fill-rule="evenodd" clip-rule="evenodd" d="M12 11.208C10.5641 11.208 9.40002 12.3721 9.40002 13.808C9.40002 15.2439 10.5641 16.408 12 16.408C13.436 16.408 14.6 15.2439 14.6 13.808C14.6 12.3721 13.436 11.208 12 11.208ZM7.40002 13.808C7.40002 11.2675 9.45951 9.20801 12 9.20801C14.5405 9.20801 16.6 11.2675 16.6 13.808C16.6 16.3485 14.5405 18.408 12 18.408C9.45951 18.408 7.40002 16.3485 7.40002 13.808Z" fill="black"/>
<path fill-rule="evenodd" clip-rule="evenodd" d="M8.29999 6.608C8.29999 6.05572 8.7477 5.608 9.29999 5.608H14.7C15.2523 5.608 15.7 6.05572 15.7 6.608C15.7 7.16029 15.2523 7.608 14.7 7.608H9.29999C8.7477 7.608 8.29999 7.16029 8.29999 6.608Z" fill="black"/>
</svg>

<svg xmlns="http://www.w3.org/2000/svg" fill="none" viewBox="0 0 24 25"><path fill="#000" fill-rule="evenodd" d="M6.7 3.208c-.929 0-1.7.758-1.7 1.755v14.49c0 .997.771 1.755 1.7 1.755h10.6c.929 0 1.7-.758 1.7-1.755V4.963c0-1.022-.795-1.755-1.6-1.755zM3 4.963C3 2.9 4.629 1.208 6.7 1.208h10.7c1.995 0 3.6 1.716 3.6 3.755v14.49c0 2.064-1.629 3.755-3.7 3.755H6.7c-2.071 0-3.7-1.691-3.7-3.755z" clip-rule="evenodd"/><path fill="#000" fill-rule="evenodd" d="M12 11.208a2.6 2.6 0 1 0 0 5.2 2.6 2.6 0 0 0 0-5.2m-4.6 2.6a4.6 4.6 0 1 1 9.2 0 4.6 4.6 0 0 1-9.2 0m.9-7.2a1 1 0 0 1 1-1h5.4a1 1 0 1 1 0 2H9.3a1 1 0 0 1-1-1" clip-rule="evenodd"/></svg>
